X: 19561
T: James Kelly's
R: reel
M: 4/4
K: Edorian
BEEB DEBE|EeBE GABG|(3AAA FE DEFA|defd ~e2gf|
eBBA ABBd|BAGB DEGE|EAFE DEFA|1 defd e2dc:|2 defd eA B/c/d||
|:eB~B2 g2fg|eBde- egaf|dA~A2 effe|dBAF DF B/c/d|
~e3B ~g2fg|eBde- egaf|dA~A2 effe|1 dBAF ~E3d:|2 dBAF E2z2||

